; generated by Slic3r 1.3.0 on 2022-02-13 at 08:27:05

; external perimeters extrusion width = 0.55mm (4.37mm^3/s)
; perimeters extrusion width = 0.70mm (11.44mm^3/s)
; infill extrusion width = 0.62mm (13.45mm^3/s)
; solid infill extrusion width = 0.70mm (3.81mm^3/s)
; top infill extrusion width = 0.70mm (2.86mm^3/s)
; support material extrusion width = 0.55mm (8.74mm^3/s)

M190 S60 ; set bed temperature and wait for it to be reached
M104 S210 ; set temperature
G28 ; home all axes
G1 Z5 F5000 ; lift nozzle

; Filament gcode

M109 S210 ; set temperature and wait for it to be reached
G21 ; set units to millimeters
G90 ; use absolute coordinates
M82 ; use absolute distances for extrusion
G92 E0
G1 Z0.350 F7800.000
G1 E-2.00000 F2400.00000
G92 E0
G1 X82.338 Y83.258 F7800.000
G1 E2.00000 F2400.00000
G1 F1800
G1 X84.003 Y81.769 E2.20306
G1 X85.886 Y80.205 E2.42565
G1 X86.221 Y79.944 E2.46427
G1 X87.313 Y79.167 E2.58607
G1 X89.094 Y78.035 E2.77803
G1 X90.385 Y77.310 E2.91263
G1 X92.546 Y76.277 E3.13039
G1 X92.935 Y76.109 E3.16901
G1 X94.417 Y75.537 E3.31339
G1 X96.596 Y74.841 E3.52138
G1 X98.257 Y74.428 E3.67705
G1 X99.965 Y74.101 E3.83515
G1 X100.384 Y74.035 E3.87377
G1 X102.208 Y73.818 E4.04073
G1 X103.819 Y73.716 E4.18754
G1 X105.796 Y73.704 E4.36731
G1 X107.691 Y73.809 E4.53992
G1 X108.114 Y73.849 E4.57853
G1 X110.180 Y74.124 E4.76808
G1 X111.937 Y74.472 E4.93091
G1 X113.681 Y74.921 E5.09465
G1 X115.254 Y75.418 E5.24468
G1 X115.654 Y75.562 E5.28330
G1 X117.817 Y76.434 E5.49542
G1 X119.207 Y77.103 E5.63566
G1 X121.002 Y78.091 E5.82198
G1 X122.192 Y78.831 E5.94943
G1 X122.544 Y79.070 E5.98804
G1 X124.301 Y80.349 E6.18565
G1 X125.293 Y81.153 E6.30179
G1 X127.905 Y83.584 E6.62622
G1 X128.418 Y84.123 E6.69389
G1 X129.630 Y85.567 E6.86539
G1 X130.655 Y86.940 E7.02117
G1 X131.695 Y88.514 E7.19267
G1 X131.916 Y88.877 E7.23128
G1 X132.953 Y90.746 E7.42566
G1 X133.759 Y92.451 E7.59716
G1 X134.402 Y94.039 E7.75294
G1 X134.548 Y94.438 E7.79156
G1 X135.130 Y96.232 E7.96306
G1 X135.564 Y97.889 E8.11884
G1 X135.938 Y99.738 E8.29034
G1 X136.030 Y100.368 E8.34825
G1 X136.293 Y103.135 E8.60103
G1 X136.387 Y104.594 E8.73392
G1 X136.388 Y105.426 E8.80960
G1 X136.286 Y107.031 E8.95585
G1 X136.058 Y109.488 E9.18019
G1 X135.974 Y110.094 E9.23583
G1 X135.716 Y111.474 E9.36353
G1 X135.628 Y111.873 E9.40063
G1 X135.115 Y113.862 E9.58739
G1 X134.554 Y115.585 E9.75218
G1 X133.959 Y117.120 E9.90186
G1 X133.213 Y118.771 E10.06664
G1 X132.252 Y120.587 E10.25341
G1 X131.309 Y122.134 E10.41819
G1 X130.634 Y123.182 E10.53156
G1 X130.196 Y123.811 E10.60118
G1 X129.446 Y124.779 E10.71259
G1 X129.172 Y125.109 E10.75156
G1 X127.644 Y126.819 E10.96006
G1 X126.778 Y127.685 E11.07147
G1 X126.248 Y128.162 E11.13629
G1 X124.475 Y129.557 E11.34141
G1 X122.544 Y130.967 E11.55886
G1 X122.192 Y131.206 E11.59747
G1 X121.002 Y131.946 E11.72492
G1 X119.207 Y132.934 E11.91124
G1 X117.817 Y133.603 E12.05148
G1 X115.654 Y134.475 E12.26360
G1 X115.254 Y134.619 E12.30222
G1 X113.681 Y135.116 E12.45224
G1 X111.937 Y135.565 E12.61599
G1 X110.180 Y135.913 E12.77882
G1 X108.114 Y136.188 E12.96836
G1 X107.691 Y136.228 E13.00698
G1 X105.796 Y136.333 E13.17959
G1 X103.819 Y136.321 E13.35935
G1 X102.208 Y136.219 E13.50617
G1 X100.384 Y136.002 E13.67313
G1 X99.965 Y135.935 E13.71175
G1 X98.257 Y135.608 E13.86985
G1 X96.596 Y135.196 E14.02552
G1 X96.188 Y135.077 E14.06414
G1 X94.033 Y134.362 E14.27061
G1 X92.546 Y133.759 E14.41651
G1 X90.748 Y132.912 E14.59718
G1 X89.460 Y132.218 E14.73028
G1 X89.094 Y132.002 E14.76889
G1 X87.313 Y130.869 E14.96085
G1 X86.221 Y130.093 E15.08265
G1 X84.165 Y128.406 E15.32449
G1 X83.270 Y127.584 E15.43499
G1 X80.773 Y124.946 E15.76528
G1 X80.291 Y124.371 E15.83348
G1 X79.417 Y123.200 E15.96638
G1 X78.239 Y121.416 E16.16076
G1 X78.019 Y121.052 E16.19938
G1 X77.106 Y119.402 E16.37088
G1 X76.190 Y117.471 E16.56526
G1 X75.495 Y115.717 E16.73676
G1 X74.955 Y114.091 E16.89254
G1 X74.834 Y113.684 E16.93115
G1 X74.369 Y111.856 E17.10265
G1 X74.042 Y110.175 E17.25843
G1 X73.787 Y108.306 E17.42993
G1 X73.747 Y107.888 E17.46817
G1 X73.623 Y105.774 E17.66064
G1 X73.633 Y103.929 E17.82841
G1 X73.735 Y102.270 E17.97961
G1 X73.773 Y101.859 E18.01709
G1 X74.008 Y100.062 E18.18187
G1 X74.310 Y98.444 E18.33155
G1 X74.740 Y96.684 E18.49633
G1 X74.852 Y96.291 E18.53344
G1 X75.486 Y94.338 E18.72021
G1 X76.153 Y92.653 E18.88499
G1 X76.841 Y91.157 E19.03467
G1 X77.023 Y90.792 E19.07177
G1 X77.891 Y89.201 E19.23655
G1 X78.983 Y87.462 E19.42332
G1 X79.794 Y86.315 E19.55101
G1 X80.558 Y85.281 E19.66792
G1 X81.033 Y84.682 E19.73741
G1 X81.843 Y83.763 E19.84882
G1 X82.286 Y83.311 E19.90636
G1 E17.90636 F2400.00000
G92 E0
G1 X83.970 Y85.151 F7800.000
G1 E2.00000 F2400.00000
G1 F1800
G1 X84.513 Y84.655 E2.06692
G1 X85.082 Y84.185 E2.13407
G1 X85.713 Y83.598 E2.21240
G1 X87.534 Y82.089 E2.42747
G1 X88.602 Y81.314 E2.54753
G1 X90.493 Y80.111 E2.75130
G1 X91.645 Y79.474 E2.87112
G1 X95.211 Y77.788 E3.22979
G1 X95.270 Y77.825 E3.23614
G1 X95.415 Y77.844 E3.24949
G1 X97.026 Y77.319 E3.40352
G1 X98.542 Y76.926 E3.54592
G1 X100.631 Y76.527 E3.73939
G1 X102.303 Y76.320 E3.89261
G1 X104.044 Y76.210 E4.05123
G1 X105.858 Y76.206 E4.21622
G1 X107.733 Y76.324 E4.38710
G1 X109.525 Y76.551 E4.55137
G1 X111.249 Y76.879 E4.71096
G1 X113.118 Y77.361 E4.88651
G1 X114.545 Y77.819 E5.02280
G1 X116.695 Y78.672 E5.23320
G1 X117.942 Y79.263 E5.35866
G1 X119.850 Y80.314 E5.55679
G1 X121.017 Y81.055 E5.68250
G1 X122.879 Y82.410 E5.89192
G1 X123.749 Y83.124 E5.99432
G1 X126.673 Y85.856 E6.35823
G1 X126.921 Y86.312 E6.40544
G1 X127.376 Y86.681 E6.45874
G1 X128.100 Y87.767 E6.57746
G1 X128.946 Y88.785 E6.69775
G1 X129.171 Y89.326 E6.75106
G1 X129.537 Y89.693 E6.79826
G1 X130.117 Y90.863 E6.91698
G1 X130.825 Y91.980 E7.03728
G1 X130.979 Y92.546 E7.09058
G1 X131.296 Y92.957 E7.13778
G1 X131.721 Y94.191 E7.25650
G1 X132.280 Y95.390 E7.37680
G1 X132.339 Y95.905 E7.42401
G1 X132.622 Y96.418 E7.47731
G1 X132.886 Y97.697 E7.59603
G1 X133.288 Y98.957 E7.71633
G1 X133.293 Y99.543 E7.76963
G1 X133.495 Y100.021 E7.81683
G1 X133.606 Y101.488 E7.95057
G1 X133.793 Y103.252 E8.11193
G1 X133.897 Y104.884 E8.26063
G1 X133.898 Y105.143 E8.28420
G1 X133.801 Y106.719 E8.42785
G1 X133.624 Y108.404 E8.58188
G1 X133.535 Y109.745 E8.70410
G1 X133.395 Y110.124 E8.74087
G1 X133.388 Y110.212 E8.74894
G1 X133.443 Y110.513 E8.77675
G1 X132.964 Y112.042 E8.92248
G1 X132.752 Y113.144 E9.02454
G1 X132.486 Y113.706 E9.08109
G1 X132.361 Y114.268 E9.13348
G1 X132.221 Y114.695 E9.17437
G1 X131.882 Y115.443 E9.24900
G1 X131.560 Y116.440 E9.34428
G1 X131.200 Y117.042 E9.40815
G1 X131.020 Y117.555 E9.45759
G1 X130.826 Y117.965 E9.49883
G1 X130.397 Y118.667 E9.57364
G1 X129.974 Y119.578 E9.66497
G1 X129.506 Y120.203 E9.73601
G1 X129.285 Y120.652 E9.78145
G1 X129.041 Y121.039 E9.82312
G1 X128.798 Y121.349 E9.85894
G1 X128.633 Y121.670 E9.89170
G1 X128.198 Y122.328 E9.96346
G1 X127.837 Y122.709 E10.01123
G1 X127.771 Y122.827 E10.02351
G1 X127.347 Y123.418 E10.08967
G1 X126.923 Y123.834 E10.14368
G1 X126.463 Y124.352 E10.20666
G1 X126.336 Y124.529 E10.22652
G1 X125.855 Y125.090 E10.29373
G1 X125.442 Y125.430 E10.34239
G1 X124.875 Y126.065 E10.41977
G1 X124.174 Y126.622 E10.50123
G1 X123.590 Y127.044 E10.56673
G1 X122.879 Y127.627 E10.65037
G1 X121.017 Y128.982 E10.85979
G1 X119.850 Y129.723 E10.98550
G1 X117.942 Y130.774 E11.18364
G1 X116.695 Y131.364 E11.30910
G1 X114.545 Y132.217 E11.51950
G1 X113.118 Y132.676 E11.65578
G1 X111.249 Y133.157 E11.83134
G1 X109.525 Y133.486 E11.99093
G1 X107.733 Y133.713 E12.15519
G1 X105.858 Y133.830 E12.32607
G1 X104.044 Y133.827 E12.49106
G1 X102.303 Y133.717 E12.64968
G1 X100.500 Y133.490 E12.81492
G1 X98.666 Y133.138 E12.98483
G1 X97.153 Y132.755 E13.12676
G1 X95.012 Y132.058 E13.33151
G1 X93.673 Y131.524 E13.46262
G1 X91.759 Y130.621 E13.65511
G1 X90.493 Y129.926 E13.78647
G1 X88.602 Y128.723 E13.99024
G1 X87.638 Y128.029 E14.09829
G1 X85.713 Y126.438 E14.32537
G1 X84.935 Y125.713 E14.42212
G1 X82.144 Y122.753 E14.79214
G1 X81.925 Y122.282 E14.83935
G1 X81.495 Y121.884 E14.89265
G1 X80.842 Y120.754 E15.01137
G1 X80.063 Y119.685 E15.13167
G1 X79.874 Y119.130 E15.18497
G1 X79.531 Y118.740 E15.23218
G1 X79.020 Y117.520 E15.35247
G1 X78.393 Y116.375 E15.47119
G1 X78.301 Y115.865 E15.51840
G1 X77.986 Y115.370 E15.57170
G1 X77.635 Y114.095 E15.69200
G1 X77.159 Y112.880 E15.81072
G1 X77.116 Y112.295 E15.86402
G1 X76.884 Y111.831 E15.91122
G1 X76.702 Y110.538 E16.02994
G1 X76.382 Y109.255 E16.15024
G1 X76.423 Y108.737 E16.19745
G1 X76.243 Y108.180 E16.25075
G1 X76.229 Y106.879 E16.36901
G1 X76.073 Y105.576 E16.48840
G1 X76.174 Y105.106 E16.53213
G1 X76.173 Y105.031 E16.53890
G1 X76.065 Y104.594 E16.57985
G1 X76.222 Y103.258 E16.70221
G1 X76.228 Y102.012 E16.81547
G1 X76.360 Y101.606 E16.85430
G1 X76.365 Y101.522 E16.86198
G1 X76.297 Y101.184 E16.89330
G1 X76.657 Y99.730 E17.02957
G1 X76.805 Y98.583 E17.13471
G1 X77.030 Y98.047 E17.18759
G1 X77.122 Y97.468 E17.24091
G1 X77.235 Y97.035 E17.28164
G1 X77.528 Y96.269 E17.35620
G1 X77.793 Y95.229 E17.45384
G1 X78.105 Y94.645 E17.51406
G1 X78.259 Y94.104 E17.56514
G1 X78.426 Y93.685 E17.60620
G1 X78.811 Y92.959 E17.68091
G1 X79.185 Y92.005 E17.77410
G1 X79.598 Y91.389 E17.84158
G1 X79.800 Y90.907 E17.88912
G1 X80.019 Y90.507 E17.93057
G1 X80.491 Y89.832 E18.00547
G1 X80.961 Y88.965 E18.09515
G1 X81.486 Y88.336 E18.16970
G1 X81.721 Y87.923 E18.21288
G1 X81.990 Y87.549 E18.25478
G1 X82.241 Y87.271 E18.28885
G1 X82.471 Y86.900 E18.32857
G1 X82.930 Y86.291 E18.39789
G1 X83.318 Y85.930 E18.44611
G1 X83.847 Y85.257 E18.52398
G1 X83.913 Y85.200 E18.53185
G1 X84.378 Y85.625 F7800.000
G1 F1800
G1 X84.931 Y85.121 E18.59989
G1 X85.496 Y84.654 E18.66653
G1 X86.119 Y84.073 E18.74405
G1 X87.925 Y82.577 E18.95732
G1 X88.945 Y81.836 E19.07203
G1 X90.820 Y80.644 E19.27402
G1 X91.938 Y80.026 E19.39022
G1 X95.167 Y78.500 E19.71501
G1 X95.329 Y78.529 E19.73005
G1 X97.210 Y77.916 E19.90993
G1 X98.687 Y77.534 E20.04872
G1 X100.719 Y77.145 E20.23683
G1 X102.352 Y76.943 E20.38651
G1 X104.073 Y76.834 E20.54335
G1 X105.848 Y76.831 E20.70473
G1 X107.664 Y76.945 E20.87025
G1 X109.437 Y77.170 E21.03273
G1 X111.103 Y77.487 E21.18696
G1 X112.953 Y77.964 E21.36073
G1 X114.342 Y78.411 E21.49348
G1 X116.438 Y79.242 E21.69852
G1 X117.649 Y79.815 E21.82037
G1 X119.540 Y80.857 E22.01672
G1 X120.658 Y81.566 E22.13707
G1 X122.503 Y82.909 E22.34470
G1 X123.343 Y83.600 E22.44357
G1 X126.173 Y86.244 E22.79581
G1 X126.435 Y86.726 E22.84567
G1 X126.479 Y86.778 E22.85189
G1 X126.913 Y87.113 E22.90175
G1 X127.599 Y88.142 E23.01418
G1 X128.400 Y89.106 E23.12818
G1 X128.598 Y89.617 E23.17805
G1 X128.635 Y89.674 E23.18426
G1 X129.023 Y90.062 E23.23413
G1 X129.571 Y91.170 E23.34655
G1 X130.243 Y92.229 E23.46056
G1 X130.374 Y92.761 E23.51042
G1 X130.403 Y92.823 E23.51664
G1 X130.738 Y93.257 E23.56650
G1 X131.140 Y94.426 E23.67893
G1 X131.671 Y95.562 E23.79294
G1 X131.733 Y96.107 E23.84280
G1 X131.754 Y96.171 E23.84901
G1 X132.031 Y96.645 E23.89888
G1 X132.285 Y97.873 E24.01288
G1 X132.661 Y99.050 E24.12531
G1 X132.653 Y99.598 E24.17518
G1 X132.666 Y99.665 E24.18139
G1 X132.879 Y100.170 E24.23125
G1 X132.983 Y101.544 E24.35658
G1 X133.169 Y103.299 E24.51702
G1 X133.273 Y105.124 E24.68328
G1 X133.177 Y106.674 E24.82452
G1 X133.001 Y108.350 E24.97781
G1 X132.918 Y109.613 E25.09291
G1 X132.749 Y110.069 E25.13708
G1 X132.742 Y110.157 E25.14515
G1 X132.801 Y110.474 E25.17449
G1 X132.356 Y111.889 E25.30936
G1 X132.153 Y112.948 E25.40744
G1 X131.889 Y113.504 E25.46340
G1 X131.757 Y114.105 E25.51936
G1 X131.638 Y114.467 E25.55404
G1 X131.298 Y115.216 E25.62885
G1 X130.987 Y116.180 E25.72093
G1 X130.630 Y116.777 E25.78425
G1 X130.440 Y117.320 E25.83652
G1 X130.276 Y117.668 E25.87151
G1 X129.845 Y118.371 E25.94647
G1 X129.434 Y119.256 E26.03519
G1 X128.961 Y119.888 E26.10701
G1 X128.738 Y120.348 E26.15349
G1 X128.531 Y120.676 E26.18884
G1 X128.270 Y121.008 E26.22719
G1 X128.093 Y121.354 E26.26252
G1 X127.707 Y121.937 E26.32614
G1 X127.315 Y122.350 E26.37789
G1 X127.231 Y122.507 E26.39414
G1 X126.871 Y123.009 E26.45027
G1 X126.462 Y123.411 E26.50247
G1 X125.974 Y123.961 E26.56932
G1 X125.843 Y124.143 E26.58973
G1 X125.416 Y124.642 E26.64947
G1 X124.968 Y125.010 E26.70216
G1 X124.872 Y125.146 E26.71733
G1 X124.453 Y125.600 E26.77350
G1 X123.787 Y126.131 E26.85094
G1 X123.208 Y126.549 E26.91593
G1 X122.503 Y127.127 E26.99881
G1 X120.658 Y128.471 E27.20644
G1 X119.540 Y129.180 E27.32679
G1 X117.649 Y130.222 E27.52314
G1 X116.438 Y130.795 E27.64499
G1 X114.342 Y131.626 E27.85003
G1 X112.953 Y132.073 E27.98278
G1 X111.103 Y132.550 E28.15655
G1 X109.437 Y132.867 E28.31078
G1 X107.664 Y133.092 E28.47326
G1 X105.848 Y133.205 E28.63878
G1 X104.073 Y133.203 E28.80017
G1 X102.245 Y133.083 E28.96679
G1 X100.608 Y132.874 E29.11688
G1 X98.793 Y132.526 E29.28500
G1 X97.318 Y132.152 E29.42340
G1 X95.233 Y131.473 E29.62279
G1 X93.930 Y130.954 E29.75029
G1 X92.034 Y130.060 E29.94100
G1 X90.820 Y129.393 E30.06699
G1 X88.945 Y128.201 E30.26898
G1 X88.014 Y127.529 E30.37349
G1 X86.119 Y125.963 E30.59696
G1 X85.370 Y125.264 E30.69018
G1 X82.668 Y122.398 E31.04846
G1 X82.437 Y121.900 E31.09833
G1 X82.396 Y121.845 E31.10454
G1 X81.985 Y121.483 E31.15440
G1 X81.366 Y120.413 E31.26683
G1 X80.629 Y119.399 E31.38084
G1 X80.464 Y118.876 E31.43070
G1 X80.430 Y118.817 E31.43691
G1 X80.069 Y118.405 E31.48678
G1 X79.592 Y117.264 E31.59921
G1 X78.990 Y116.165 E31.71321
G1 X78.893 Y115.625 E31.76308
G1 X78.867 Y115.561 E31.76929
G1 X78.561 Y115.107 E31.81916
G1 X78.235 Y113.914 E31.93158
G1 X77.778 Y112.747 E32.04559
G1 X77.751 Y112.199 E32.09545
G1 X77.734 Y112.133 E32.10167
G1 X77.488 Y111.643 E32.15153
G1 X77.317 Y110.419 E32.26396
G1 X77.013 Y109.202 E32.37796
G1 X77.057 Y108.656 E32.42783
G1 X77.048 Y108.588 E32.43404
G1 X76.867 Y108.070 E32.48391
G1 X76.853 Y106.838 E32.59595
G1 X76.706 Y105.605 E32.70895
G1 X76.815 Y105.096 E32.75629
G1 X76.814 Y105.021 E32.76306
G1 X76.699 Y104.554 E32.80678
G1 X76.847 Y103.296 E32.92206
G1 X76.853 Y102.113 E33.02964
G1 X77.005 Y101.644 E33.07445
G1 X77.010 Y101.560 E33.08212
G1 X76.938 Y101.199 E33.11561
G1 X77.272 Y99.845 E33.24245
G1 X77.414 Y98.747 E33.34315
G1 X77.636 Y98.217 E33.39541
G1 X77.735 Y97.594 E33.45275
G1 X77.831 Y97.227 E33.48730
G1 X78.124 Y96.459 E33.56205
G1 X78.380 Y95.456 E33.65613
G1 X78.689 Y94.878 E33.71578
G1 X78.852 Y94.304 E33.77003
G1 X78.994 Y93.948 E33.80486
G1 X79.380 Y93.221 E33.87974
G1 X79.742 Y92.296 E33.97004
G1 X80.152 Y91.685 E34.03701
G1 X80.365 Y91.177 E34.08708
G1 X80.550 Y90.838 E34.12224
G1 X81.024 Y90.162 E34.19729
G1 X81.481 Y89.318 E34.28461
G1 X81.993 Y88.715 E34.35651
G1 X82.249 Y88.260 E34.40401
G1 X82.477 Y87.942 E34.43956
G1 X82.763 Y87.626 E34.47837
G1 X82.989 Y87.252 E34.51811
G1 X83.396 Y86.711 E34.57964
G1 X83.816 Y86.320 E34.63187
G1 X83.907 Y86.173 E34.64758
G1 X84.321 Y85.674 E34.70654
G1 X84.786 Y86.099 F7800.000
G1 F1800
G1 X85.348 Y85.587 E34.77569
G1 X85.909 Y85.124 E34.84182
G1 X86.526 Y84.549 E34.91852
G1 X88.316 Y83.065 E35.13002
G1 X89.289 Y82.358 E35.23936
G1 X91.147 Y81.177 E35.43956
G1 X92.230 Y80.578 E35.55216
G1 X95.130 Y79.208 E35.84388
G1 X95.270 Y79.221 E35.85667
G1 X95.537 Y79.119 E35.88264
G1 X97.394 Y78.514 E36.06027
G1 X98.833 Y78.142 E36.19545
G1 X100.716 Y77.779 E36.36983
G1 X102.314 Y77.575 E36.51631
G1 X104.103 Y77.458 E36.67940
G1 X105.838 Y77.456 E36.83717
G1 X107.595 Y77.566 E36.99734
G1 X109.348 Y77.789 E37.15803
G1 X110.956 Y78.095 E37.30690
G1 X112.788 Y78.567 E37.47889
G1 X114.140 Y79.002 E37.60810
G1 X116.181 Y79.812 E37.80778
G1 X117.356 Y80.368 E37.92603
G1 X119.230 Y81.400 E38.12059
G1 X120.298 Y82.077 E38.23558
G1 X122.128 Y83.409 E38.44143
G1 X122.937 Y84.075 E38.53675
G1 X125.673 Y86.633 E38.87732
G1 X125.948 Y87.140 E38.92984
G1 X125.993 Y87.192 E38.93606
G1 X126.450 Y87.545 E38.98858
G1 X127.097 Y88.516 E39.09472
G1 X127.854 Y89.427 E39.20243
G1 X128.063 Y89.966 E39.25495
G1 X128.100 Y90.023 E39.26117
G1 X128.508 Y90.432 E39.31369
G1 X129.035 Y91.492 E39.42141
G1 X129.660 Y92.478 E39.52754
